svgs/light/rectangle-xmark.svg

<svg xmlns="http://www.w3.org/2000/svg" viewBox="0 0 512 512"><!--! Font Awesome Pro 6.4.0 by @fontawesome - https://fontawesome.com License - https://fontawesome.com/license (Commercial License) Copyright 2023 Fonticons, Inc. --><path d="M64 64C46.3 64 32 78.3 32 96V416c0 17.7 14.3 32 32 32H448c17.7 0 32-14.3 32-32V96c0-17.7-14.3-32-32-32H64zM0 96C0 60.7 28.7 32 64 32H448c35.3 0 64 28.7 64 64V416c0 35.3-28.7 64-64 64H64c-35.3 0-64-28.7-64-64V96zm180.7 84.7c6.2-6.2 16.4-6.2 22.6 0L256 233.4l52.7-52.7c6.2-6.2 16.4-6.2 22.6 0s6.2 16.4 0 22.6L278.6 256l52.7 52.7c6.2 6.2 6.2 16.4 0 22.6s-16.4 6.2-22.6 0L256 278.6l-52.7 52.7c-6.2 6.2-16.4 6.2-22.6 0s-6.2-16.4 0-22.6L233.4 256l-52.7-52.7c-6.2-6.2-6.2-16.4 0-22.6z"/></svg>

<svg xmlns="http://www.w3.org/2000/svg" viewBox="0 0 512 512"><!--! Font Awesome Pro 6.3.0 by @fontawesome - https://fontawesome.com License - https://fontawesome.com/license (Commercial License) Copyright 2023 Fonticons, Inc. --><path d="M180.7 180.7C186.9 174.4 197.1 174.4 203.3 180.7L256 233.4L308.7 180.7C314.9 174.4 325.1 174.4 331.3 180.7C337.6 186.9 337.6 197.1 331.3 203.3L278.6 256L331.3 308.7C337.6 314.9 337.6 325.1 331.3 331.3C325.1 337.6 314.9 337.6 308.7 331.3L256 278.6L203.3 331.3C197.1 337.6 186.9 337.6 180.7 331.3C174.4 325.1 174.4 314.9 180.7 308.7L233.4 256L180.7 203.3C174.4 197.1 174.4 186.9 180.7 180.7zM0 96C0 60.65 28.65 32 64 32H448C483.3 32 512 60.65 512 96V416C512 451.3 483.3 480 448 480H64C28.65 480 0 451.3 0 416V96zM32 96V416C32 433.7 46.33 448 64 448H448C465.7 448 480 433.7 480 416V96C480 78.33 465.7 64 448 64H64C46.33 64 32 78.33 32 96z"/></svg>
